;FLAVOR:Marlin
;TIME:4733
;Filament used: 3.20079m
;Layer height: 0.15
;MINX:68.951
;MINY:86.445
;MINZ:0.2
;MAXX:148.498
;MAXY:123.555
;MAXZ:15.95
;Generated with Cura_SteamEngine 4.9.0
M104 S200
M105
M109 S200
M82 ;absolute extrusion mode
; -- START GCODE --
G21                     ;set units to millimetres
G90                     ;set to absolute positioning
M106 S0                 ;set fan speed to zero (turned off)
G28 X0 Y0               ;move to the X/Y origin (Home)
G28 Z0                  ;move to the Z origin (Home)
G1 Z15.0 F1200          ;move Z to position 15.0 mm
G92 E0                  ;zero the extruded length
G1 E20 F200             ;extrude 20mm of feed stock
G92 E0                  ;zero the extruded length again
G1 F7200                ;set feedrate to 120 mm/s
; -- end of START GCODE --
G92 E0
G92 E0
G1 F1500 E-6.5
;LAYER_COUNT:106
;LAYER:0
M107
G0 F3600 X75.739 Y90.659 Z0.2
;TYPE:SKIRT
G1 F1500 E0
G1 F1200 X75.863 Y90.558 E0.00532
G1 X76.442 Y90.107 E0.02973
G1 X76.984 Y89.722 E0.05184
G1 X77.445 Y89.416 E0.07024
G1 X77.532 Y89.36 E0.07369
G1 X78.053 Y89.037 E0.09407
G1 X78.202 Y88.95 E0.09981
G1 X78.78 Y88.629 E0.1218
G1 X78.933 Y88.549 E0.12755
G1 X79.621 Y88.209 E0.15307
G1 X79.785 Y88.133 E0.15908
G1 X80.489 Y87.828 E0.1846
G1 X80.646 Y87.764 E0.19024
G1 X81.246 Y87.537 E0.21158
G1 X81.543 Y87.434 E0.22203
G1 X82.133 Y87.245 E0.24264
G1 X82.465 Y87.15 E0.25412
G1 X83.135 Y86.975 E0.27715
G1 X83.287 Y86.939 E0.28235
G1 X83.994 Y86.787 E0.3064
G1 X84.217 Y86.746 E0.31394
G1 X84.921 Y86.632 E0.33766
G1 X85.097 Y86.608 E0.34357
G1 X85.689 Y86.543 E0.36338
G1 X86.205 Y86.5 E0.3806
G1 X87.075 Y86.46 E0.40957
G1 X88.134 Y86.445 E0.44479
G1 X126.874 Y86.446 E1.73329
G1 X128.023 Y86.462 E1.77151
G1 X128.63 Y86.486 E1.79172
G1 X128.8 Y86.497 E1.79738
G1 X129.557 Y86.566 E1.82267
G1 X130.196 Y86.653 E1.84411
G1 X130.719 Y86.739 E1.86174
G1 X131.338 Y86.858 E1.88271
G1 X131.597 Y86.915 E1.89153
G1 X132.294 Y87.086 E1.9154
G1 X132.456 Y87.13 E1.92098
G1 X133.125 Y87.328 E1.94419
G1 X133.372 Y87.409 E1.95283
G1 X133.946 Y87.61 E1.97306
G1 X134.102 Y87.669 E1.97861
G1 X134.712 Y87.915 E2.00048
G1 X135.109 Y88.088 E2.01489
G1 X135.698 Y88.365 E2.03654
G1 X135.951 Y88.493 E2.04597
G1 X136.563 Y88.819 E2.06903
G1 X136.731 Y88.916 E2.07548
G1 X137.33 Y89.274 E2.09869
G1 X137.476 Y89.366 E2.10443
G1 X138.108 Y89.788 E2.12971
G1 X138.274 Y89.907 E2.1365
G1 X138.847 Y90.332 E2.16023
G1 X138.986 Y90.441 E2.1661
G1 X139.567 Y90.918 E2.19111
G1 X139.7 Y91.032 E2.19693
G1 X140.247 Y91.529 E2.22151
G1 X140.373 Y91.65 E2.22732
G1 X140.889 Y92.168 E2.25164
G1 X141.018 Y92.305 E2.2579
G1 X141.896 Y93.277 E2.30147
G1 X143.764 Y95.285 E2.39268
G1 X145.666 Y97.219 E2.4829
G1 X146.791 Y98.307 E2.53496
G1 X146.975 Y98.491 E2.54361
G1 X147.324 Y98.898 E2.56144
G1 X147.61 Y99.352 E2.57929
G1 X147.825 Y99.843 E2.59712
G1 X147.977 Y100.412 E2.61671
G1 X148.081 Y100.945 E2.63477
G1 X148.21 Y101.658 E2.65887
G1 X148.314 Y102.283 E2.67994
G1 X148.353 Y102.602 E2.69063
G1 X148.436 Y103.711 E2.72762
G1 X148.47 Y104.309 E2.74754
G1 X148.498 Y104.99 E2.77021
G1 X148.498 Y105.293 E2.78029
G1 X148.466 Y106.033 E2.80492
G1 X148.442 Y106.449 E2.81878
G1 X148.398 Y107.073 E2.83959
G1 X148.36 Y107.402 E2.8506
G1 X148.163 Y108.597 E2.89089
G1 X148.12 Y108.826 E2.89864
G1 X147.98 Y109.536 E2.92271
G1 X147.837 Y110.053 E2.94055
G1 X147.496 Y110.756 E2.96653
G1 X147.178 Y111.188 E2.98438
G1 X146.974 Y111.408 E2.99435
G1 X146.22 Y112.153 E3.02961
G1 X144.279 Y114.13 E3.12176
G1 X142.432 Y116.118 E3.21201
G1 X141.834 Y116.798 E3.24213
G1 X141.059 Y117.655 E3.28056
G1 X140.965 Y117.754 E3.2851
G1 X140.599 Y118.129 E3.30253
G1 X140.492 Y118.235 E3.30754
G1 X139.971 Y118.726 E3.33135
G1 X139.848 Y118.837 E3.33686
G1 X139.282 Y119.322 E3.36165
G1 X139.101 Y119.468 E3.36939
G1 X138.546 Y119.898 E3.39274
G1 X138.408 Y119.999 E3.39843
G1 X137.896 Y120.357 E3.41921
G1 X137.528 Y120.598 E3.43384
G1 X136.993 Y120.929 E3.45476
G1 X136.866 Y121.005 E3.45968
G1 X136.192 Y121.383 E3.48539
G1 X136.003 Y121.481 E3.49247
G1 X135.4 Y121.778 E3.51482
G1 X135.135 Y121.899 E3.52451
G1 X134.492 Y122.177 E3.54781
G1 X133.916 Y122.4 E3.56836
G1 X133.358 Y122.595 E3.58802
G1 X132.773 Y122.781 E3.60843
G1 X132.601 Y122.831 E3.61439
G1 X131.881 Y123.021 E3.63916
G1 X131.725 Y123.058 E3.64449
G1 X131.073 Y123.198 E3.66667
G1 X130.693 Y123.268 E3.67952
G1 X130.046 Y123.37 E3.70131
G1 X129.892 Y123.391 E3.70648
G1 X129.382 Y123.449 E3.72355
G1 X128.819 Y123.497 E3.74234
G1 X127.916 Y123.54 E3.77241
G1 X126.861 Y123.555 E3.8075
G1 X88.132 Y123.555 E5.09563
G1 X86.999 Y123.539 E5.13332
G1 X86.366 Y123.514 E5.15439
G1 X86.19 Y123.502 E5.16026
G1 X85.458 Y123.436 E5.1847
G1 X84.788 Y123.345 E5.20719
G1 X84.239 Y123.254 E5.2257
G1 X83.634 Y123.138 E5.24619
G1 X83.459 Y123.1 E5.25215
G1 X82.695 Y122.912 E5.27832
G1 X82.54 Y122.87 E5.28366
G1 X81.865 Y122.67 E5.30707
G1 X81.645 Y122.598 E5.31477
G1 X81.035 Y122.384 E5.33627
G1 X80.884 Y122.327 E5.34164
G1 X80.197 Y122.049 E5.36629
G1 X79.895 Y121.915 E5.37728
G1 X79.312 Y121.642 E5.39869
G1 X79.154 Y121.563 E5.40457
G1 X78.465 Y121.198 E5.4305
G1 X78.301 Y121.106 E5.43675
G1 X77.641 Y120.711 E5.46234
G1 X77.104 Y120.36 E5.48367
G1 X76.622 Y120.023 E5.50323
G1 X76.045 Y119.588 E5.52727
G1 X75.51 Y119.151 E5.55024
G1 X75.263 Y118.936 E5.56114
G1 X74.758 Y118.477 E5.58383
G1 X74.629 Y118.354 E5.58976
G1 X74.072 Y117.795 E5.61601
G1 X73.946 Y117.662 E5.6221
G1 X73.451 Y117.112 E5.64671
G1 X73.039 Y116.615 E5.66818
G1 X72.714 Y116.196 E5.68582
G1 X72.655 Y116.118 E5.68907
G1 X72.321 Y115.66 E5.70793
G1 X72.229 Y115.527 E5.71331
G1 X71.827 Y114.92 E5.73752
G1 X71.73 Y114.765 E5.7436
G1 X71.346 Y114.114 E5.76874
G1 X71.099 Y113.656 E5.78605
G1 X70.661 Y112.771 E5.81889
G1 X70.571 Y112.577 E5.826
G1 X70.351 Y112.061 E5.84466
G1 X70.087 Y111.388 E5.86871
G1 X69.855 Y110.72 E5.89223
G1 X69.803 Y110.555 E5.89798
G1 X69.592 Y109.833 E5.923
G1 X69.546 Y109.66 E5.92895
G1 X69.377 Y108.949 E5.95326
G1 X69.319 Y108.672 E5.96267
G1 X69.199 Y108.025 E5.98456
G1 X69.171 Y107.849 E5.99049
G1 X69.067 Y107.077 E6.01639
G1 X69.048 Y106.901 E6.02228
G1 X68.994 Y106.251 E6.04398
G1 X68.976 Y105.937 E6.05444
G1 X68.953 Y105.235 E6.0778
G1 X68.951 Y105.063 E6.08352
G1 X68.963 Y104.319 E6.10827
G1 X68.971 Y104.137 E6.11433
G1 X69.014 Y103.47 E6.13656
G1 X69.042 Y103.166 E6.14671
G1 X69.107 Y102.598 E6.16573
G1 X69.159 Y102.233 E6.17799
G1 X69.258 Y101.645 E6.19782
G1 X69.286 Y101.496 E6.20286
G1 X69.437 Y100.791 E6.22684
G1 X69.475 Y100.634 E6.23222
G1 X69.624 Y100.062 E6.25188
G1 X69.775 Y99.541 E6.26992
G1 X69.946 Y99.009 E6.2885
G1 X70.1 Y98.577 E6.30376
G1 X70.303 Y98.048 E6.3226
G1 X70.365 Y97.897 E6.32803
G1 X70.653 Y97.239 E6.35192
G1 X70.776 Y96.978 E6.36152
G1 X71.088 Y96.355 E6.38469
G1 X71.198 Y96.15 E6.39243
G1 X71.495 Y95.623 E6.41255
G1 X71.584 Y95.473 E6.41835
G1 X72.022 Y94.778 E6.44568
G1 X72.137 Y94.608 E6.4525
G1 X72.609 Y93.939 E6.47973
G1 X72.745 Y93.761 E6.48718
G1 X73.342 Y93.018 E6.51889
G1 X73.83 Y92.463 E6.54347
G1 X73.926 Y92.362 E6.5481
G1 X74.716 Y91.563 E6.58547
G1 X75.128 Y91.18 E6.60418
G1 X75.739 Y90.659 E6.63089
G0 F3600 X75.999 Y90.963
G1 F1200 X76.109 Y90.873 E6.63562
G1 X76.688 Y90.422 E6.66003
G1 X77.213 Y90.05 E6.68143
G1 X77.665 Y89.75 E6.69947
G1 X78.264 Y89.377 E6.72294
G1 X78.396 Y89.299 E6.72804
G1 X78.974 Y88.978 E6.75003
G1 X79.11 Y88.907 E6.75513
G1 X79.798 Y88.567 E6.78066
G1 X79.944 Y88.5 E6.786
G1 X80.648 Y88.195 E6.81152
G1 X80.788 Y88.138 E6.81655
G1 X81.388 Y87.911 E6.83788
G1 X81.665 Y87.814 E6.84764
G1 X82.245 Y87.629 E6.86789
G1 X82.566 Y87.537 E6.879
G1 X83.236 Y87.362 E6.90203
G1 X83.371 Y87.33 E6.90664
G1 X84.07 Y87.18 E6.93042
G1 X84.28 Y87.141 E6.93753
G1 X84.984 Y87.027 E6.96125
G1 X85.141 Y87.006 E6.96652
G1 X85.723 Y86.942 E6.98599
G1 X86.229 Y86.899 E7.00288
G1 X87.089 Y86.86 E7.03151
G1 X88.14 Y86.845 E7.06647
G1 X126.869 Y86.846 E8.3546
G1 X128.018 Y86.862 E8.39282
G1 X128.613 Y86.886 E8.41263
G1 X128.765 Y86.896 E8.4177
G1 X129.51 Y86.963 E8.44258
G1 X130.141 Y87.049 E8.46376
G1 X130.652 Y87.134 E8.48099
G1 X131.254 Y87.249 E8.50137
G1 X131.501 Y87.303 E8.50978
G1 X132.198 Y87.474 E8.53365
G1 X132.343 Y87.513 E8.53864
G1 X133.002 Y87.709 E8.56151
G1 X133.24 Y87.787 E8.56984
G1 X133.814 Y87.988 E8.59007
G1 X133.953 Y88.04 E8.59501
G1 X134.651 Y88.323 E8.62006
G1 X134.939 Y88.451 E8.63054
G1 X135.519 Y88.723 E8.65185
G1 X135.764 Y88.846 E8.66096
G1 X136.365 Y89.167 E8.68363
G1 X136.526 Y89.259 E8.68979
G1 X137.125 Y89.617 E8.713
G1 X137.255 Y89.699 E8.71812
G1 X137.798 Y90.06 E8.7398
G1 X138.035 Y90.228 E8.74946
G1 X138.608 Y90.653 E8.77319
G1 X138.733 Y90.75 E8.77846
G1 X139.314 Y91.227 E8.80346
G1 X139.432 Y91.329 E8.80865
G1 X139.971 Y91.818 E8.83285
G1 X140.09 Y91.933 E8.83836
G1 X140.6 Y92.444 E8.86237
G1 X140.721 Y92.573 E8.86825
G1 X141.608 Y93.555 E8.91226
G1 X143.468 Y95.556 E9.00313
G1 X145.386 Y97.505 E9.09408
G1 X146.508 Y98.59 E9.14599
G1 X146.692 Y98.774 E9.15464
G1 X147.02 Y99.159 E9.17147
G1 X147.283 Y99.59 E9.18826
G1 X147.476 Y100.058 E9.2051
G1 X147.68 Y100.975 E9.23634
G1 X147.816 Y101.724 E9.26166
G1 X147.92 Y102.349 E9.28274
G1 X147.954 Y102.633 E9.29225
G1 X148.037 Y103.734 E9.32897
G1 X148.07 Y104.326 E9.34869
G1 X148.098 Y105.007 E9.37136
G1 X148.098 Y105.276 E9.38031
G1 X148.066 Y106.011 E9.40478
G1 X148.043 Y106.421 E9.41844
G1 X147.999 Y107.045 E9.43924
G1 X147.965 Y107.337 E9.44902
G1 X147.77 Y108.524 E9.48903
G1 X147.728 Y108.749 E9.49664
G1 X147.588 Y109.459 E9.52071
G1 X147.451 Y109.946 E9.53754
G1 X147.157 Y110.544 E9.5597
G1 X146.693 Y111.124 E9.5844
G1 X145.902 Y111.906 E9.6214
G1 X143.983 Y113.859 E9.71247
G1 X142.128 Y115.857 E9.80315
G1 X141.537 Y116.529 E9.83291
G1 X140.762 Y117.386 E9.87134
G1 X140.679 Y117.475 E9.87539
G1 X140.313 Y117.85 E9.89282
G1 X140.218 Y117.944 E9.89726
G1 X139.697 Y118.435 E9.92107
G1 X139.587 Y118.533 E9.92597
G1 X139.029 Y119.012 E9.95043
G1 X138.856 Y119.152 E9.95784
G1 X138.301 Y119.582 E9.98119
G1 X138.179 Y119.672 E9.98623
G1 X137.675 Y120.024 E10.00668
G1 X137.318 Y120.258 E10.02087
G1 X136.783 Y120.589 E10.0418
G1 X136.669 Y120.656 E10.0462
G1 X136.005 Y121.029 E10.07153
G1 X135.826 Y121.123 E10.07825
G1 X135.233 Y121.415 E10.10024
G1 X134.976 Y121.532 E10.10963
G1 X134.333 Y121.81 E10.13293
G1 X133.774 Y122.026 E10.15286
G1 X133.237 Y122.214 E10.17178
G1 X132.652 Y122.4 E10.1922
G1 X132.498 Y122.444 E10.19753
G1 X131.778 Y122.634 E10.22229
G1 X131.641 Y122.667 E10.22698
G1 X130.999 Y122.805 E10.24882
G1 X130.63 Y122.873 E10.2613
G1 X129.983 Y122.975 E10.28309
G1 X129.847 Y122.994 E10.28765
G1 X129.245 Y123.061 E10.3078
G1 X128.469 Y123.119 E10.33368
G1 X127.902 Y123.14 E10.35255
G1 X126.855 Y123.155 E10.38738
G1 X88.138 Y123.155 E11.67511
G1 X87.005 Y123.139 E11.7128
G1 X86.382 Y123.114 E11.73354
G1 X86.225 Y123.104 E11.73877
G1 X85.502 Y123.038 E11.76292
G1 X84.844 Y122.949 E11.785
G1 X84.306 Y122.86 E11.80314
G1 X83.71 Y122.746 E11.82332
G1 X83.554 Y122.711 E11.82864
G1 X82.79 Y122.523 E11.85481
G1 X82.653 Y122.486 E11.85953
G1 X81.988 Y122.29 E11.88259
G1 X81.778 Y122.221 E11.88994
G1 X81.168 Y122.007 E11.91144
G1 X81.033 Y121.956 E11.91624
G1 X80.358 Y121.683 E11.94046
G1 X80.065 Y121.553 E11.95112
G1 X79.482 Y121.28 E11.97253
G1 X79.341 Y121.21 E11.97776
G1 X78.652 Y120.845 E12.0037
G1 X78.507 Y120.763 E12.00924
G1 X77.847 Y120.368 E12.03482
G1 X77.325 Y120.027 E12.05556
G1 X76.852 Y119.696 E12.07476
G1 X76.29 Y119.271 E12.0982
G1 X75.764 Y118.841 E12.12079
G1 X75.532 Y118.64 E12.131
G1 X75.027 Y118.181 E12.1537
G1 X74.912 Y118.072 E12.15897
G1 X74.355 Y117.513 E12.18522
G1 X74.243 Y117.395 E12.19063
G1 X73.748 Y116.845 E12.21524
G1 X73.348 Y116.361 E12.23612
G1 X73.03 Y115.952 E12.25335
G1 X72.644 Y115.425 E12.27508
G1 X72.562 Y115.306 E12.27989
G1 X72.16 Y114.699 E12.3041
G1 X72.074 Y114.561 E12.30951
G1 X71.695 Y113.919 E12.33431
G1 X71.453 Y113.47 E12.35127
G1 X71.218 Y112.99 E12.36905
G1 X70.939 Y112.42 E12.39015
G1 X70.721 Y111.91 E12.4086
G1 X70.462 Y111.248 E12.43225
G1 X70.434 Y111.172 E12.43494
G1 X70.233 Y110.59 E12.45542
G1 X70.186 Y110.443 E12.46055
G1 X69.975 Y109.721 E12.48557
G1 X69.935 Y109.567 E12.49086
G1 X69.768 Y108.867 E12.5148
G1 X69.713 Y108.599 E12.5239
G1 X69.593 Y107.952 E12.54578
G1 X69.568 Y107.795 E12.55107
G1 X69.464 Y107.023 E12.57698
G1 X69.447 Y106.867 E12.5822
G1 X69.393 Y106.227 E12.60356
G1 X69.376 Y105.924 E12.61365
G1 X69.353 Y105.222 E12.63702
G1 X69.351 Y105.069 E12.64211
G1 X69.363 Y104.334 E12.66655
G1 X69.371 Y104.163 E12.67225
G1 X69.421 Y103.401 E12.69765
G1 X69.44 Y103.211 E12.704
G1 X69.516 Y102.557 E12.7259
G1 X69.553 Y102.3 E12.73453
G1 X69.652 Y101.712 E12.75436
G1 X69.678 Y101.579 E12.75887
G1 X69.826 Y100.884 E12.78251
G1 X69.862 Y100.734 E12.78764
G1 X70.011 Y100.162 E12.8073
G1 X70.159 Y99.653 E12.82493
G1 X70.324 Y99.142 E12.84279
G1 X70.473 Y98.721 E12.85764
G1 X70.676 Y98.192 E12.87649
G1 X70.731 Y98.057 E12.88133
G1 X71.016 Y97.407 E12.90494
G1 X71.134 Y97.157 E12.91414
G1 X71.443 Y96.54 E12.93709
G1 X71.546 Y96.346 E12.94439
G1 X71.843 Y95.819 E12.96451
G1 X71.923 Y95.686 E12.96967
G1 X72.356 Y94.999 E12.99668
G1 X72.464 Y94.839 E13.0031
G1 X72.93 Y94.178 E13.03
G1 X73.056 Y94.012 E13.03693
G1 X73.653 Y93.269 E13.06864
G1 X74.125 Y92.733 E13.09239
G1 X74.211 Y92.643 E13.09653
G1 X74.992 Y91.852 E13.1335
G1 X75.393 Y91.48 E13.1517
G1 X75.999 Y90.963 E13.17819
G0 F3600 X78.002 Y93.708
;TYPE:SUPPORT
G1 F1200 X78.592 Y93.236 E13.20332
G1 X79.181 Y92.81 E13.2275
G1 X79.822 Y92.4 E13.2528
G1 X80.428 Y92.049 E13.2761
G1 X81.123 Y91.693 E13.30207
G1 X81.754 Y91.408 E13.3251
G1 X82.445 Y91.136 E13.3498
G1 X83.128 Y90.906 E13.37377
G1 X83.863 Y90.702 E13.39914
G1 X84.586 Y90.536 E13.42381
G1 X85.312 Y90.408 E13.44833
G1 X86.01 Y90.319 E13.47173
G1 X86.029 Y90.319 E13.47236
G1 X86.74 Y90.264 E13.49608
G1 X87.502 Y90.245 E13.52144
G1 X127.529 Y90.246 E14.85274
G1 X128.196 Y90.264 E14.87493
G1 X128.262 Y90.264 E14.87713
G1 X128.963 Y90.317 E14.90051
G1 X129.661 Y90.404 E14.9239
G1 X129.713 Y90.416 E14.92568
G1 X130.416 Y90.539 E14.94942
G1 X131.128 Y90.702 E14.97371
G1 X131.856 Y90.905 E14.99885
G1 X132.523 Y91.129 E15.02225
G1 X133.215 Y91.398 E15.04694
G1 X133.9 Y91.707 E15.07194
G1 X134.564 Y92.048 E15.09676
G1 X135.213 Y92.424 E15.12171
G1 X135.792 Y92.797 E15.14462
G1 X136.411 Y93.242 E15.16997
G1 X136.976 Y93.693 E15.19402
G1 X137.53 Y94.181 E15.21857
G1 X138.027 Y94.664 E15.24162
G1 X138.552 Y95.229 E15.26728
G1 X139.032 Y95.799 E15.29206
G1 X139.483 Y96.398 E15.317
G1 X139.889 Y96.991 E15.3409
G1 X140.271 Y97.619 E15.36535
G1 X140.629 Y98.275 E15.39021
G1 X140.956 Y98.952 E15.41521
G1 X141.225 Y99.593 E15.43833
G1 X141.85 Y101.305 E15.49895
G1 X142.317 Y101.58 E15.51698
G1 X144.275 Y101.26 E15.58296
G1 X144.589 Y102.985 E15.64128
G1 X144.71 Y105.138 E15.713
G1 X144.609 Y106.916 E15.77224
G1 X144.295 Y108.619 E15.82983
G1 X142.356 Y108.302 E15.89518
G1 X141.889 Y108.577 E15.9132
G1 X141.231 Y110.391 E15.97739
G1 X140.95 Y111.058 E16.00146
G1 X140.631 Y111.722 E16.02596
G1 X140.277 Y112.373 E16.05061
G1 X139.896 Y112.996 E16.07489
G1 X139.469 Y113.626 E16.10021
G1 X139.043 Y114.185 E16.12358
G1 X138.558 Y114.767 E16.14878
G1 X138.052 Y115.312 E16.17352
G1 X137.537 Y115.81 E16.19734
G1 X136.985 Y116.299 E16.22187
G1 X136.398 Y116.768 E16.24686
G1 X135.811 Y117.192 E16.27095
G1 X135.219 Y117.571 E16.29433
G1 X134.546 Y117.962 E16.32021
G1 X133.893 Y118.297 E16.34462
G1 X133.22 Y118.599 E16.36916
G1 X132.562 Y118.86 E16.3927
G1 X131.854 Y119.096 E16.41752
G1 X131.114 Y119.303 E16.44308
G1 X130.422 Y119.463 E16.4667
G1 X129.687 Y119.59 E16.49151
G1 X128.966 Y119.681 E16.51568
G1 X128.255 Y119.736 E16.5394
G1 X127.52 Y119.755 E16.56386
G1 X87.476 Y119.755 E17.89573
G1 X86.733 Y119.736 E17.92045
G1 X86.032 Y119.683 E17.94383
G1 X85.333 Y119.595 E17.96726
G1 X84.578 Y119.46 E17.99277
G1 X83.86 Y119.296 E18.01727
G1 X83.139 Y119.095 E18.04216
G1 X82.478 Y118.874 E18.06534
G1 X81.771 Y118.599 E18.09057
G1 X81.13 Y118.309 E18.11397
