;FLAVOR:RepRap
;TIME:6493
M104 S218.000000
M109 S218.000000
; -- START GCODE --
G21                     ;set units to millimetres
G90                     ;set to absolute positioning
M106 S0                 ;set fan speed to zero (turned off)
G28 X0 Y0               ;move to the X/Y origin (Home)
G28 Z0                  ;move to the Z origin (Home)
G1 Z15.0 F1200          ;move Z to position 15.0 mm
G92 E0                  ;zero the extruded length
G1 E20 F200             ;extrude 20mm of feed stock
G92 E0                  ;zero the extruded length again
G1 F7200                ;set feedrate to 120 mm/sec
; -- end of START GCODE --
;Generated with Cura_SteamEngine 2.1.2
;LAYER_COUNT:350
;LAYER:0
M107
G1 F1800.000000 E-2.00000
G1 Z20.075
G0 F4800.000 X81.156 Y85.903 Z0.275
;TYPE:SKIRT
G1 Z0.200
G1 F1800.000 E0.00000
G1 F1200.00000 X81.177 Y85.884 E0.00094
G1 X81.545 Y85.621 E0.01599
G1 X81.595 Y85.588 E0.01798
G1 X82.079 Y85.341 E0.03605
G1 X82.096 Y85.334 E0.03666
G1 X82.528 Y85.190 E0.05181
G1 X82.607 Y85.167 E0.05455
G1 X83.032 Y85.093 E0.06889
G1 X83.151 Y85.076 E0.07289
G1 X83.166 Y85.075 E0.07339
G1 X84.423 Y85.051 E0.11521
G1 X94.793 Y85.051 E0.46011
G1 X96.825 Y85.080 E0.52771
G1 X96.842 Y85.080 E0.52827
G1 X96.914 Y85.081 E0.53067
G1 X96.914 Y85.080 E0.53070
G1 X100.259 Y85.074 E0.64196
G1 X101.465 Y85.051 E0.68207
G1 X113.793 Y85.051 E1.09211
G1 X115.825 Y85.080 E1.15970
G1 X115.842 Y85.080 E1.16026
G1 X115.914 Y85.081 E1.16266
G1 X115.914 Y85.080 E1.16269
G1 X119.259 Y85.074 E1.27395
G1 X120.465 Y85.051 E1.31406
G1 X130.832 Y85.051 E1.65887
G1 X131.538 Y85.061 E1.68236
G1 X131.716 Y85.069 E1.68828
G1 X132.017 Y85.095 E1.69833
G1 X132.490 Y85.194 E1.71440
G1 X132.545 Y85.207 E1.71628
G1 X132.981 Y85.369 E1.73175
G1 X133.032 Y85.390 E1.73359
G1 X133.498 Y85.647 E1.75129
G1 X133.522 Y85.661 E1.75221
G1 X133.847 Y85.909 E1.76581
G1 X133.931 Y85.978 E1.76943
G1 X134.286 Y86.345 E1.78641
G1 X134.294 Y86.354 E1.78681
G1 X134.596 Y86.777 E1.80410
G1 X134.616 Y86.806 E1.80527
G1 X134.820 Y87.208 E1.82026
G1 X134.851 Y87.274 E1.82269
G1 X135.007 Y87.744 E1.83916
G1 X135.037 Y87.843 E1.84260
G1 X135.213 Y88.690 E1.87137
G1 X135.310 Y89.204 E1.88877
G1 X135.915 Y91.967 E1.98284
G1 X136.598 Y94.712 E2.07693
G1 X137.358 Y97.436 E2.17099
G1 X138.195 Y100.138 E2.26507
G1 X139.108 Y102.815 E2.35914
G1 X140.502 Y106.492 E2.48993
G1 X140.794 Y107.220 E2.51602
G1 X140.968 Y107.742 E2.53432
G1 X140.985 Y107.798 E2.53627
G1 X141.058 Y108.218 E2.55045
G1 X141.075 Y108.334 E2.55435
G1 X141.076 Y108.357 E2.55511
G1 X141.100 Y109.611 E2.59683
G1 X141.100 Y120.642 E2.96372
G1 X141.090 Y121.345 E2.98711
G1 X141.082 Y121.526 E2.99313
G1 X141.056 Y121.827 E3.00318
G1 X140.957 Y122.300 E3.01925
G1 X140.944 Y122.355 E3.02113
G1 X140.781 Y122.793 E3.03668
G1 X140.761 Y122.842 E3.03844
G1 X140.510 Y123.298 E3.05575
G1 X140.490 Y123.332 E3.05706
G1 X140.242 Y123.657 E3.07066
G1 X140.173 Y123.741 E3.07427
G1 X139.805 Y124.097 E3.09130
G1 X139.797 Y124.104 E3.09166
G1 X139.371 Y124.408 E3.10906
G1 X139.345 Y124.426 E3.11012
G1 X138.943 Y124.630 E3.12511
G1 X138.877 Y124.661 E3.12753
G1 X138.407 Y124.817 E3.14401
G1 X138.351 Y124.834 E3.14595
G1 X137.931 Y124.907 E3.16013
G1 X137.815 Y124.924 E3.16403
G1 X137.792 Y124.925 E3.16480
G1 X136.538 Y124.949 E3.20651
G1 X78.207 Y124.949 E5.14661
G1 X77.501 Y124.939 E5.17009
G1 X77.323 Y124.931 E5.17602
G1 X77.022 Y124.905 E5.18607
G1 X76.549 Y124.806 E5.20214
G1 X76.494 Y124.793 E5.20402
G1 X76.056 Y124.630 E5.21956
G1 X76.007 Y124.610 E5.22132
G1 X75.541 Y124.353 E5.23902
G1 X75.517 Y124.339 E5.23995
G1 X75.192 Y124.091 E5.25355
G1 X75.108 Y124.022 E5.25716
G1 X74.752 Y123.654 E5.27419
G1 X74.745 Y123.646 E5.27454
G1 X74.434 Y123.210 E5.29236
G1 X74.423 Y123.194 E5.29300
G1 X74.219 Y122.792 E5.30800
G1 X74.188 Y122.726 E5.31042
G1 X74.024 Y122.232 E5.32773
G1 X74.015 Y122.200 E5.32884
G1 X73.942 Y121.780 E5.34302
G1 X73.925 Y121.664 E5.34692
G1 X73.924 Y121.636 E5.34785
G1 X73.900 Y120.387 E5.38940
G1 X73.900 Y109.356 E5.75629
G1 X73.910 Y108.649 E5.77981
G1 X73.918 Y108.472 E5.78570
G1 X73.944 Y108.171 E5.79575
G1 X74.043 Y107.698 E5.81182
G1 X74.056 Y107.643 E5.81370
G1 X74.215 Y107.213 E5.82895
G1 X74.311 Y106.979 E5.83736
G1 X75.341 Y104.344 E5.93146
G1 X76.296 Y101.682 E6.02553
G1 X77.175 Y98.994 E6.11959
G1 X77.978 Y96.282 E6.21366
G1 X78.704 Y93.548 E6.30775
G1 X79.594 Y89.668 E6.44015
G1 X80.007 Y87.688 E6.50742
G1 X80.017 Y87.645 E6.50889
G1 X80.180 Y87.207 E6.52443
G1 X80.200 Y87.158 E6.52619
G1 X80.457 Y86.692 E6.54389
G1 X80.471 Y86.668 E6.54482
G1 X80.719 Y86.343 E6.55841
G1 X80.788 Y86.259 E6.56203
G1 X81.156 Y85.903 E6.57906
G0 F4800.00000 X81.215 Y86.387
G1 F1200.000 X81.233 Y86.370 E6.57988
G1 X81.355 Y86.261 E6.58532
G1 X81.597 Y86.063 E6.59572
G1 X81.636 Y86.036 E6.59730
G1 X81.716 Y85.984 E6.60047
G1 X82.035 Y85.798 E6.61276
G1 X82.050 Y85.791 E6.61331
G1 X82.189 Y85.730 E6.61835
G1 X82.491 Y85.612 E6.62914
G1 X82.501 Y85.609 E6.62949
G1 X82.507 Y85.607 E6.62970
G1 X82.509 Y85.606 E6.62977
G1 X82.640 Y85.572 E6.63427
G1 X82.924 Y85.511 E6.64393
G1 X83.458 Y85.461 E6.66177
G1 X83.708 Y85.453 E6.67009
G1 X83.918 Y85.451 E6.67708
G1 X94.822 Y85.451 E7.03974
G1 X96.685 Y85.477 E7.10171
G1 X99.513 Y85.477 E7.19577
G1 X100.459 Y85.455 E7.22725
G1 X100.957 Y85.451 E7.24381
G1 X113.822 Y85.451 E7.67170
G1 X115.685 Y85.477 E7.73367
G1 X118.513 Y85.477 E7.82773
G1 X119.459 Y85.455 E7.85920
G1 X119.957 Y85.451 E7.87577
G1 X130.832 Y85.451 E8.23747
G1 X131.538 Y85.461 E8.26096
G1 X131.695 Y85.468 E8.26618
G1 X132.012 Y85.497 E8.27677
G1 X132.034 Y85.500 E8.27751
G1 X132.045 Y85.502 E8.27788
G1 X132.195 Y85.533 E8.28298
G1 X132.494 Y85.610 E8.29324
G1 X132.547 Y85.625 E8.29508
G1 X132.678 Y85.675 E8.29974
G1 X132.990 Y85.810 E8.31105
G1 X133.021 Y85.826 E8.31221
G1 X133.123 Y85.885 E8.31613
G1 X133.412 Y86.069 E8.32752
G1 X133.413 Y86.070 E8.32757
G1 X133.420 Y86.075 E8.32786
G1 X133.569 Y86.196 E8.33424
G1 X133.793 Y86.394 E8.34418
G1 X133.819 Y86.420 E8.34541
G1 X133.899 Y86.509 E8.34939
G1 X134.118 Y86.776 E8.36087
G1 X134.127 Y86.787 E8.36134
G1 X134.138 Y86.802 E8.36196
G1 X134.215 Y86.922 E8.36671
G1 X134.389 Y87.220 E8.37818
G1 X134.394 Y87.228 E8.37850
G1 X134.452 Y87.360 E8.38329
G1 X134.580 Y87.688 E8.39500
G1 X134.587 Y87.709 E8.39574
G1 X134.618 Y87.829 E8.39986
G1 X134.833 Y88.832 E8.43398
G1 X135.114 Y90.240 E8.48173
G1 X135.744 Y92.998 E8.57583
G1 X136.452 Y95.736 E8.66989
G1 X137.238 Y98.453 E8.76396
G1 X138.100 Y101.147 E8.85804
G1 X139.038 Y103.815 E8.95210
G1 X140.051 Y106.456 E9.04618
G1 X140.294 Y107.052 E9.06759
G1 X140.541 Y107.686 E9.09022
G1 X140.548 Y107.707 E9.09096
G1 X140.579 Y107.827 E9.09508
G1 X140.641 Y108.114 E9.10484
G1 X140.689 Y108.630 E9.12208
G1 X140.690 Y108.649 E9.12271
G1 X140.698 Y108.896 E9.13093
G1 X140.700 Y109.055 E9.13622
G1 X140.700 Y120.642 E9.52161
G1 X140.690 Y121.348 E9.54509
G1 X140.683 Y121.505 E9.55032
G1 X140.654 Y121.819 E9.56081
G1 X140.651 Y121.844 E9.56164
G1 X140.650 Y121.853 E9.56194
G1 X140.621 Y121.992 E9.56667
G1 X140.539 Y122.310 E9.57759
G1 X140.530 Y122.344 E9.57876
G1 X140.527 Y122.354 E9.57911
G1 X140.476 Y122.488 E9.58388
G1 X140.350 Y122.780 E9.59445
G1 X140.340 Y122.803 E9.59529
G1 X140.325 Y122.831 E9.59634
G1 X140.266 Y122.933 E9.60026
G1 X140.082 Y123.222 E9.61166
G1 X140.076 Y123.231 E9.61202
G1 X139.955 Y123.379 E9.61838
G1 X139.760 Y123.600 E9.62818
G1 X139.731 Y123.629 E9.62954
G1 X139.647 Y123.705 E9.63331
G1 X139.360 Y123.940 E9.64565
G1 X139.358 Y123.942 E9.64574
G1 X139.348 Y123.948 E9.64613
G1 X139.229 Y124.025 E9.65084
G1 X138.926 Y124.202 E9.66252
G1 X138.916 Y124.207 E9.66289
G1 X138.783 Y124.265 E9.66771
G1 X138.463 Y124.390 E9.67914
G1 X138.461 Y124.391 E9.67921
G1 X138.442 Y124.397 E9.67988
G1 X138.322 Y124.428 E9.68400
G1 X138.035 Y124.490 E9.69377
G1 X137.519 Y124.538 E9.71100
G1 X137.499 Y124.539 E9.71167
G1 X137.253 Y124.547 E9.71985
G1 X137.043 Y124.549 E9.72684
G1 X78.207 Y124.549 E11.68373
G1 X77.501 Y124.539 E11.70722
G1 X77.344 Y124.532 E11.71244
G1 X77.027 Y124.503 E11.72303
G1 X77.005 Y124.500 E11.72377
G1 X76.994 Y124.498 E11.72414
G1 X76.844 Y124.467 E11.72924
G1 X76.539 Y124.388 E11.73971
G1 X76.492 Y124.375 E11.74134
G1 X76.359 Y124.324 E11.74607
G1 X76.050 Y124.190 E11.75728
G1 X76.046 Y124.189 E11.75741
G1 X76.018 Y124.174 E11.75847
G1 X75.916 Y124.115 E11.76239
G1 X75.626 Y123.930 E11.77383
G1 X75.615 Y123.922 E11.77428
G1 X75.611 Y123.919 E11.77445
G1 X75.470 Y123.804 E11.78050
G1 X75.243 Y123.603 E11.79059
G1 X75.220 Y123.580 E11.79167
G1 X75.139 Y123.490 E11.79569
G1 X74.909 Y123.209 E11.80777
G1 X74.901 Y123.198 E11.80822
G1 X74.901 Y123.197 E11.80826
G1 X74.824 Y123.078 E11.81297
G1 X74.647 Y122.775 E11.82464
G1 X74.641 Y122.763 E11.82509
G1 X74.584 Y122.632 E11.82984
G1 X74.458 Y122.309 E11.84137
G1 X74.452 Y122.291 E11.84200
G1 X74.421 Y122.171 E11.84613
G1 X74.359 Y121.884 E11.85589
G1 X74.311 Y121.368 E11.87313
G1 X74.310 Y121.348 E11.87379
G1 X74.302 Y121.102 E11.88198
G1 X74.300 Y120.892 E11.88897
G1 X74.300 Y109.356 E12.27265
G1 X74.310 Y108.649 E12.29617
G1 X74.317 Y108.493 E12.30137
G1 X74.346 Y108.176 E12.31195
G1 X74.350 Y108.145 E12.31299
G1 X74.351 Y108.143 E12.31307
G1 X74.382 Y107.993 E12.31816
G1 X74.461 Y107.686 E12.32870
G1 X74.474 Y107.641 E12.33026
G1 X74.587 Y107.346 E12.34077
G1 X74.728 Y106.999 E12.35323
G1 X75.756 Y104.364 E12.44730
G1 X76.709 Y101.701 E12.54137
G1 X77.586 Y99.012 E12.63545
G1 X78.387 Y96.300 E12.72950
G1 X79.111 Y93.565 E12.82360
G1 X79.757 Y90.812 E12.91765
G1 X80.013 Y89.531 E12.96110
G1 X80.021 Y89.533 E12.96138
G1 X80.342 Y87.999 E13.01350
G1 X80.431 Y87.655 E13.02532
G1 X80.493 Y87.493 E13.03109
G1 X80.614 Y87.216 E13.04114
G1 X80.627 Y87.189 E13.04214
G1 X80.635 Y87.174 E13.04270
G1 X80.711 Y87.043 E13.04774
G1 X80.873 Y86.787 E13.05782
G1 X80.889 Y86.764 E13.05875
G1 X80.895 Y86.756 E13.05908
G1 X80.983 Y86.648 E13.06372
G1 X81.210 Y86.391 E13.07512
G1 X81.215 Y86.387 E13.07533
G1 F1800.00000 E11.07533
G1 Z0.275
G0 F4800.000 X84.061 Y89.251 Z0.275
;TYPE:WALL-INNER
G1 Z0.200
G1 F1800.000 E13.07533
G1 F1200.00000 X94.900 Y89.251 E13.43584
G1 X94.900 Y109.249 E14.10098
G1 X101.100 Y109.249 E14.30719
G1 X101.100 Y89.251 E14.97233
G1 X113.900 Y89.251 E15.39806
G1 X113.900 Y109.249 E16.06319
G1 X120.100 Y109.249 E16.26940
G1 X120.100 Y89.251 E16.93454
G1 X130.939 Y89.251 E17.29505
G1 X130.940 Y109.249 E17.96018
G1 X136.900 Y109.249 E18.15841
G1 X136.900 Y120.749 E18.54091
G1 X78.100 Y120.749 E20.49660
G1 X78.100 Y109.249 E20.87909
G1 X84.060 Y109.249 E21.07732
G1 X84.061 Y89.251 E21.74246
G0 F4800.00000 X83.661 Y88.851
;TYPE:WALL-OUTER
G1 F1200.000 X95.300 Y88.851 E22.12957
G1 X95.300 Y108.849 E22.79471
G1 X100.700 Y108.849 E22.97432
G1 X100.700 Y88.851 E23.63945
G1 X114.300 Y88.851 E24.09179
G1 X114.300 Y108.849 E24.75693
G1 X119.700 Y108.849 E24.93653
G1 X119.700 Y88.851 E25.60167
G1 X131.339 Y88.851 E25.98878
G1 X131.340 Y108.849 E26.65392
G1 X137.300 Y108.849 E26.85215
G1 X137.300 Y121.149 E27.26125
G1 X77.700 Y121.149 E29.24355
G1 X77.700 Y108.849 E29.65265
G1 X83.660 Y108.849 E29.85088
G1 X83.661 Y88.851 E30.51602
G0 F4800.00000 X84.319 Y89.410
;TYPE:SKIN
G1 F1200.000 X94.740 Y99.831 E31.00619
G0 X94.810 Y99.901
G0 F4800.000 X94.740 Y99.265
G1 F1200.000 X84.885 Y89.410 E31.46974
G0 X84.815 Y89.340
G0 F4800.000 X85.451 Y89.410
G1 F1200.000 X94.740 Y98.700 E31.90669
G0 X94.810 Y98.770
G0 F4800.000 X94.740 Y98.134
G1 F1200.000 X86.016 Y89.410 E32.31704
G0 X85.946 Y89.340
G0 F4800.000 X86.582 Y89.410
G1 F1200.000 X94.740 Y97.568 E32.70077
G0 X94.810 Y97.638
G0 F4800.000 X94.740 Y97.003
G1 F1200.000 X87.148 Y89.410 E33.05789
G0 X87.078 Y89.340
G0 F4800.000 X87.713 Y89.410
G1 F1200.000 X94.740 Y96.437 E33.38842
G0 X94.810 Y96.507
G0 F4800.000 X94.740 Y95.871
G1 F1200.000 X88.279 Y89.410 E33.69233
G0 X88.209 Y89.340
G0 F4800.000 X88.845 Y89.410
G1 F1200.000 X94.740 Y95.305 E33.96961
G0 X94.810 Y95.375
G0 F4800.000 X94.740 Y94.740
G1 F1200.000 X89.410 Y89.410 E34.22032
G0 X89.340 Y89.340
G0 F4800.000 X89.976 Y89.410
G1 F1200.000 X94.740 Y94.174 E34.44440
G0 X94.810 Y94.244
G0 F4800.000 X94.740 Y93.608
G1 F1200.000 X90.542 Y89.410 E34.64186
G0 X90.472 Y89.340
G0 F4800.000 X91.107 Y89.410
G1 F1200.000 X94.740 Y93.043 E34.81275
G0 X94.810 Y93.113
G0 F4800.000 X94.740 Y92.477
G1 F1200.000 X91.673 Y89.410 E34.95701
G0 X91.603 Y89.340
G0 F4800.000 X92.239 Y89.410
G1 F1200.000 X94.740 Y91.911 E35.07465
G0 X94.810 Y91.981
G0 F4800.000 X94.740 Y91.346
G1 F1200.000 X92.804 Y89.410 E35.16571
G0 X92.734 Y89.340
G0 F4800.000 X93.370 Y89.410
G1 F1200.000 X94.740 Y90.780 E35.23015
G0 X94.810 Y90.850
G0 F4800.000 X94.740 Y90.214
G1 F1200.000 X93.936 Y89.410 E35.26797
G0 X93.866 Y89.340
G0 F4800.000 X94.501 Y89.410
G1 F1200.000 X94.740 Y89.649 E35.27921
G0 F4800.00000 X94.872 Y109.277
G0 X101.128 Y109.277
G0 X101.259 Y89.945
G1 F1200.000 X113.739 Y102.425 E35.86623
G0 X113.809 Y102.495
G0 F4800.000 X113.739 Y101.860
G1 F1200.000 X101.290 Y89.410 E36.45182
G0 X101.220 Y89.340
G0 F4800.000 X101.855 Y89.410
G1 F1200.000 X113.739 Y101.294 E37.01081
G0 X113.809 Y101.364
G0 F4800.000 X113.739 Y100.728
G1 F1200.000 X102.421 Y89.410 E37.54317
G0 X102.351 Y89.340
G0 F4800.000 X102.987 Y89.410
G1 F1200.000 X113.739 Y100.163 E38.04894
G0 X113.809 Y100.233
G0 F4800.000 X113.739 Y99.597
G1 F1200.000 X103.552 Y89.410 E38.52810
G0 X103.482 Y89.340
G0 F4800.000 X104.118 Y89.410
G1 F1200.000 X113.739 Y99.031 E38.98064
G0 X113.809 Y99.101
G0 F4800.000 X113.739 Y98.466
G1 F1200.000 X104.684 Y89.410 E39.40659
G0 X104.614 Y89.340
G0 F4800.000 X105.250 Y89.410
G1 F1200.000 X113.739 Y97.900 E39.80591
G0 X113.809 Y97.970
G0 F4800.000 X113.739 Y97.334
G1 F1200.000 X105.815 Y89.410 E40.17863
G0 X105.745 Y89.340
G0 F4800.000 X106.381 Y89.410
G1 F1200.000 X113.739 Y96.768 E40.52472
G0 X113.809 Y96.838
G0 F4800.000 X113.739 Y96.203
G1 F1200.000 X106.947 Y89.410 E40.84422
G0 X106.877 Y89.340
G0 F4800.000 X107.512 Y89.410
G1 F1200.000 X113.739 Y95.637 E41.13712
G0 X113.809 Y95.707
G0 F4800.000 X113.739 Y95.071
G1 F1200.000 X108.078 Y89.410 E41.40340
G0 X108.008 Y89.340
G0 F4800.000 X108.644 Y89.410
G1 F1200.000 X113.739 Y94.506 E41.64307
G0 X113.809 Y94.576
G0 F4800.000 X113.739 Y93.940
G1 F1200.000 X109.209 Y89.410 E41.85615
G0 X109.139 Y89.340
G0 F4800.000 X109.775 Y89.410
G1 F1200.000 X113.739 Y93.374 E42.04261
G0 X113.809 Y93.444
G0 F4800.000 X113.739 Y92.809
G1 F1200.000 X110.341 Y89.410 E42.20246
G0 X110.271 Y89.340
G0 F4800.000 X110.906 Y89.410
G1 F1200.000 X113.739 Y92.243 E42.33572
G0 X113.809 Y92.313
G0 F4800.000 X113.739 Y91.677
G1 F1200.000 X111.472 Y89.410 E42.44235
G0 X111.402 Y89.340
G0 F4800.000 X112.038 Y89.410
G1 F1200.000 X113.739 Y91.112 E42.52238
G0 X113.809 Y91.182
G0 F4800.000 X113.739 Y90.546
G1 F1200.000 X112.603 Y89.410 E42.57582
G0 X112.533 Y89.340
G0 F4800.000 X113.169 Y89.410
G1 F1200.000 X113.739 Y89.980 E42.60263
G0 X113.809 Y90.050
G0 F4800.000 X113.800 Y90.050
G0 X113.872 Y109.277
G0 X120.128 Y109.277
G0 X120.259 Y89.712
G1 F1200.000 X130.779 Y100.232 E43.09746
G0 X130.849 Y100.302
G0 F4800.000 X130.779 Y99.666
G1 F1200.000 X120.523 Y89.410 E43.57987
G0 X120.453 Y89.340
G0 F4800.000 X121.089 Y89.410
G1 F1200.000 X130.778 Y99.100 E44.03563
G0 X130.848 Y99.170
G0 F4800.000 X130.778 Y98.534
G1 F1200.000 X121.654 Y89.410 E44.46480
G0 X121.584 Y89.340
G0 F4800.000 X122.220 Y89.410
G1 F1200.000 X130.778 Y97.968 E44.86734
G0 X130.848 Y98.038
G0 F4800.000 X130.778 Y97.403
G1 F1200.000 X122.786 Y89.410 E45.24328
G0 X122.716 Y89.340
G0 F4800.000 X123.351 Y89.410
G1 F1200.000 X130.778 Y96.837 E45.59262
G0 X130.848 Y96.907
G0 F4800.000 X130.778 Y96.271
G1 F1200.000 X123.917 Y89.410 E45.91535
G0 X123.847 Y89.340
G0 F4800.000 X124.483 Y89.410
G1 F1200.000 X130.778 Y95.706 E46.21147
G0 X130.848 Y95.776
G0 F4800.000 X130.778 Y95.140
G1 F1200.000 X125.049 Y89.410 E46.48096
G0 X124.979 Y89.340
G0 F4800.000 X125.614 Y89.410
G1 F1200.000 X130.778 Y94.574 E46.72386
G0 X130.848 Y94.644
G0 F4800.000 X130.778 Y94.009
